X:1
T:How goodly are thy tents - Gore Ouseley
T:#
%%score [ 1 2 3 4 ]
L:1/8
Q:1/4=120
M:3/4
K:G
V:1 treble nm="Soprano" snm="S"
V:2 treble nm="Alto" snm="A"
V:3 treble-8 nm="Tenor" snm="T"
V:4 bass nm="Bass" snm="B"
V:1
"^How goodly are thy tents""^Num. 24: 5-6" z6 | z6 | z6 |!mf! d6 | d4 c2 | (B2 A2) G2 | %6
w: |||How|good- ly|are * thy|
 (F2 G2)"^F. A. Gore Ouseley\n(1823-1889)" A2 | (B2 cB) (AG) | F2 F2 A2 | (B>c) d4 | c2 B4 | %11
w: tents, * thy|tents, * * O *|Ja- cob: how|good­ * ly|are thy|
 A4 d2 | d4 e2 | A3 ^c d2- | de (d2 ^c2) | d4 z2 | z6 | z2 d2 d2 | B2 e4 | A2 A2 d2- | d2 ^c2 B2 | %21
w: tents, how|good- ly|are thy tents,|* O Ja­ *|cob,||and thy|ta- ber-|na- cles, thy|* ta- ber-|
 A2 A2 B2 | A4 A2 | F2 d2 =c2 | B2 c2 d2 | e2 c4 | A3 d B2- | B2 c2 d2- | dA A3 G | G2!<(! B2 d2 | %30
w: na- cles, O|Is- ra-|el. As the|val- leys are|they spread|forth: as gar­|* dens by|* the ri- ver|side; as the|
 g4!<)! B2 | B2 A2 B2 | c4 c2 | c3 d B2- | BA!>(! A3 G | G6-!>)! | G6- | !fermata!G6 |] %38
w: val- leys|are they spread|forth: as|gar- dens by|* the ri- ver|side.|||
V:2
 z6 | z6 |!mf! G6 | G4 F2 | (E4 F2 | G2 F2) E2 | (A,2 G,2) D2 | D4 ^C2 | D2 D2 z2 | z2 z2 D2 | %10
w: ||How|good- ly|are *|* * thy|tents, * thy|tents, O|Ja- cob:|how|
 (E>F) G4 | (D>E F2) F2 | (G2 A2) G2- | (G2 FE D2 | G2) E4 | D2 D2 D2 | B,2 E4 | E2 D2 F2 | G4 G2 | %19
w: good­ * ly|are * * thy|tents, * O||* Ja-|cob, and thy|ta- ber-|na- cles, thy|ta- ber-|
 G2 F2 F2- | F2 G4- | G2 F2 E2 | F2 E3 E | D2 F2 A2 | G2 G2 G2 | G2 A4 | F3 A G2- | G2 G2 G2 | %28
w: na- cles, O|* Is­|* ra- el,|O Is- ra-|el. As the|val- leys are|they spread|forth: as gar­|* dens by|
 G2 G2 F2 | G2!<(! G2 A2 | G4!<)! G2 | G3 G G2- | G2 F2 E2 | D2 F2 G2 | G2!>(! G2 F2 | %35
w: the ri- ver|side; as the|val- leys|are they spread|* forth: as|gar- dens by|the ri- ver|
 G2!>)!!<(! E2 =F2- | F2!<)!!>(! E2 (DC) | !fermata!D6!>)! |] %38
w: side, by the|* ri- ver *|side.|
V:3
 z6 |!mf! d6 | d4 c2 | B2 A4 | (EF G2) A2 | (Bc d2) ^c2 | d4 d2 | (=cB A2) e2 | A2 A2 z2 | z6 | %10
w: |How|good- ly|are thy|tents, * * how|good­ * * ly|are thy|tents, * * O|Ja- cob:||
 z6 | z2 z2 A2 | (B>^c d2) c2 | d2 (AG) F2 | B2 (A3 G) | F2 z2 z2 | z2 G2 G2 | F2 B4 | e2 ^c2 A2 | %19
w: |how|good­ * * ly|are thy * tents,|O Ja­ *|cob,|and thy|ta- ber-|na- cles, and|
 d4 d2- | d2 e2 ^c2- | c2 d2 d2- | d2 d2 ^c2 | d2 d2 d2 | d2 e2 d2 | c2 e4 | d3 d d2- | d2 e2 d2- | %28
w: thy ta­|* ber- na­|* cles, O|* Is- ra-|el. As the|val- leys are|they spread|forth: as gar­|* dens by|
 de (AB) c2 | B2!<(! d2 d2- | d2!<)! c2 d2 | e3 e d2 | c4 B2 | a2 a2 g2- | ge'!>(! (ab) c'2 | %35
w: * the ri­ * ver|side; as the|* val- leys|are they spread|forth: as|gar- dens by|* the ri­ * ver|
 b2!>)!!<(! c'2 d'2- | d'2!<)!!>(! c'2 (ba) | !fermata!b6!>)! |] %38
w: side, by the|* ri- ver *|side.|
V:4
!mf! G,6 | G,4 F,2 | E,6 | D,6 | (C,2 B,,2) A,,2 | (G,,2 D,2) E,2 | (D,2 E,2) F,2 | (G,2 F,2) E,2 | %8
w: How|good- ly|are|thy|tents, * how|good­ * ly|are * thy|tents, * O|
 D,2 D,2 z2 | z6 | z2 z2 G,2 | (F,>E,) D,4 | (G,2 F,2 E,2) | D,3 A,, B,,2 | G,,2 A,,4 | D,4 z2 | %16
w: Ja- cob:||how|good­ * ly|are * *|* thy tents,|O Ja-|cob,|
 z6 | z6 | z6 | z2 D,2 D,2 | B,,2 E,4 | F,2 F,2 G,2 | A,4 A,,2 | D,2 D,2 F,2 | G,2 E,2 B,,2 | %25
w: |||and thy|ta- ber-|na- cles, O|Is- ra-|el. As the|val- leys are|
 C,2 A,,4 | D,3 F, G,2- | G,2 E,2 B,,2- | B,,C, D,2 D,2 | G,,2!<(! G,2 F,2 | E,4!<)! D,2 | %31
w: they spread|forth: as gar­|* dens by|* the ri- ver|side; as the|val- leys|
 C,2 C,2 B,,2 | (A,,2 A,2) G,2 | (F,2 D,2) E,2 | (C,2!>(! D,2) D,2!>)! |!<(! G,,6 |!>(! C,6!<)! | %37
w: are they spread|forth: * as|gar­ * dens|by­ * the|ri-|ver|
 !fermata!G,,6!>)! |] %38
w: side.|

